src/assets/img/logo.svg

<svg height="433.668pt" viewBox="0 0 602.333 433.668" width="602.333pt" xmlns="http://www.w3.org/2000/svg"><path d="m0 0-84.988 84.981-127.041-127.049 127.049-127.044 42.351 42.345-84.707 84.707 42.348 42.347 84.701-84.706 84.699 84.706 211.75-211.759-42.348-42.351-169.406 169.4-127.045-127.049 127.049-127.047 42.354 42.354-84.702 84.701 42.348 42.342 169.402-169.391 127.043 127.049-296.168 296.162z" fill="#fff" transform="matrix(1 0 0 -1 216.7529 90.06549)"/></svg>

<?xml version="1.0" encoding="UTF-8" standalone="no"?>
<!DOCTYPE svg PUBLIC "-//W3C//DTD SVG 1.1//EN" "http://www.w3.org/Graphics/SVG/1.1/DTD/svg11.dtd">
<svg xmlns="http://www.w3.org/2000/svg" xmlns:xlink="http://www.w3.org/1999/xlink" version="1.1" width="602.333pt" height="433.668pt" viewBox="0 0 602.333 433.668">
<g enable-background="new">
<g id="Layer-1" data-name="Layer">
<path transform="matrix(1,0,0,-1,216.7529,90.06549)" d="M 0 0 L -84.988 84.981 L -212.029 -42.068 L -84.98 -169.112 L -42.629 -126.767 L -127.336 -42.06 L -84.988 .287 L -.287 -84.419 L 84.412 .287 L 296.162 -211.472 L 253.814 -253.823 L 84.408 -84.423 L -42.637 -211.472 L 84.412 -338.519 L 126.766 -296.165 L 42.064 -211.464 L 84.412 -169.122 L 253.814 -338.513 L 380.857 -211.464 L 84.689 84.698 Z " fill="#ffffff"/>
</g>
</g>
</svg>
